X:1
T:Etude 15, Op 176
T:Jean-Baptiste Duvernoy c. 1802 – c. 1880 
%%score { 1 | 2 }
L:1/8
Q:1/4=94
M:2/2
K:A
V:1 treble nm="Piano" snm="Pno."
V:2 bass 
V:1
"_espressivo"!p!"^Andantino" (c2 d2 e2 a2 | g2 f2 e2 d2) | (c2 e2 d2 B2 | (A4) G)(e^d=d) | %4
 (c2 d2 e2 a2 | g2 f2 e2 d2) | (c2 e2 d2 B2) | (AGFG A2) z2 |!mf! (e2 f2 e2 a2) | (e2 f2 e2 a2) | %10
 (efeg baga) | (efeg baga) | (f2 ba g2 fe) | (f2 ba g2 fe) | (^defg afed) | %15
!>(! (e^egf =e=dcB)!>)! |!p! (c2 d2 e2 a2 | g2 f2 e2 d2) | (c2 e2 d2 B2 | (A4) G)(e^d=d) | %20
 (c2 d2 e2 a2 | g2 f2 e2 d2) | (c2 e2 d2 B2) | (AGFG A2) z2 |] %24
V:2
!pp! (A,EB,E CEA,E) | (B,EDE G,EB,E) | (A,ECE) (D,B,F,B,) | (E,CA,C E,2) z2 | (A,EB,E CEA,E) | %5
 (B,EDE G,EB,E) | (A,ECE) (D,B,F,B,) | (E,2 D2 [A,C]2) z2 |!mp! (DEDE) (CECE) | (DEDE) (CECE) | %10
 (D2 E2 C2 E2) | (D2 E2 C2 E2) | (^D,B,F,B, E,B,E,B,) | (^D,B,F,B, E,B,E,B,) | (A,2 F,2 B,2 B,,2 | %15
 E,4) z4 |!pp! (A,EB,E CEA,E) | (B,EDE G,EB,E) | (A,ECE) (D,B,F,B,) | (E,CA,C E,2) z2 | %20
 (A,EB,E CEA,E) | (B,EDE G,EB,E) | (A,ECE) (D,B,F,B,) | (E,2 D2 [A,C]2) z2 |] %24

